luts/tone-target-match.cube
TITLE "Tone Target Match"
LUT_3D_SIZE 9
DOMAIN_MIN 0.0 0.0 0.0
DOMAIN_MAX 1.0 1.0 1.0
0.000000 0.000000 0.000000
0.066082 0.000000 0.000000
0.142815 0.000000 0.000000
0.264870 0.000000 0.000000
0.405819 0.000000 0.000000
0.551480 0.000000 0.000000
0.692584 0.000000 0.000000
0.829151 0.000000 0.000000
0.963735 0.000000 0.000000
0.000000 0.093646 0.000000
0.105134 0.105134 0.000000
0.225125 0.112562 0.000000
0.350056 0.116685 0.000000
0.477088 0.119272 0.000000
0.605227 0.121045 0.000000
0.734221 0.122370 0.000000
0.864292 0.123470 0.000000
0.995927 0.124491 0.000000
0.000000 0.235507 0.000000
0.119988 0.239977 0.000000
0.243131 0.243131 0.000000
0.368363 0.245576 0.000000
0.495380 0.247690 0.000000
0.624314 0.249726 0.000000
0.755561 0.251854 0.000000
0.890681 0.254480 0.000000
1.000000 0.250000 0.000000
0.000000 0.369552 0.000000
0.124215 0.372645 0.000000
0.250482 0.375724 0.000000
0.379015 0.379015 0.000000
0.511466 0.383599 0.000000
0.646966 0.388180 0.000000
0.779553 0.389777 0.000000
0.910532 0.390228 0.000000
1.000000 0.375000 0.000000
0.000000 0.507239 0.000000
0.128490 0.513958 0.000000
0.259429 0.518859 0.000000
0.389994 0.519993 0.000000
0.520382 0.520382 0.000000
0.650345 0.520276 0.000000
0.779679 0.519786 0.000000
0.908248 0.518999 0.000000
1.000000 0.500000 0.000000
0.000000 0.650249 0.000000
0.130099 0.650493 0.000000
0.260069 0.650171 0.000000
0.389647 0.649412 0.000000
0.518653 0.648316 0.000000
0.646968 0.646968 0.000000
0.774523 0.645436 0.000000
0.901288 0.643777 0.000000
1.000000 0.625000 0.000000
0.000000 0.778857 0.000000
0.129570 0.777421 0.000000
0.258571 0.775714 0.000000
0.386906 0.773813 0.000000
0.514521 0.771782 0.000000
0.641396 0.769676 0.000000
0.767540 0.767540 0.000000
0.892982 0.765413 0.000000
1.000000 0.750000 0.000000
0.000000 0.901933 0.000000
0.128504 0.899525 0.000000
0.256300 0.897049 0.000000
0.383381 0.894556 0.000000
0.509765 0.892089 0.000000
0.635489 0.889685 0.000000
0.760608 0.887376 0.000000
0.885190 0.885190 0.000000
1.000000 0.875000 0.000000
0.000000 1.000000 0.000000
0.125000 1.000000 0.000000
0.250000 1.000000 0.000000
0.375000 1.000000 0.000000
0.500000 1.000000 0.000000
0.625000 1.000000 0.000000
0.750000 1.000000 0.000000
0.875000 1.000000 0.000000
1.000000 1.000000 0.000000
0.000000 0.000000 0.068598
0.066657 0.000000 0.066657
0.153228 0.000000 0.076614
0.279922 0.000000 0.093307
0.419615 0.000000 0.104904
0.562127 0.000000 0.112425
0.699645 0.000000 0.116607
0.834542 0.000000 0.119220
0.968067 0.000000 0.121008
0.000000 0.098045 0.098045
0.108085 0.108085 0.108085
0.228481 0.114240 0.114240
0.353060 0.117687 0.117687
0.479773 0.119943 0.119943
0.607661 0.121532 0.121532
0.736563 0.122760 0.122760
0.866741 0.123820 0.123820
0.998702 0.124838 0.124838
0.000000 0.237224 0.118612
0.120580 0.241159 0.120580
0.244018 0.244018 0.122009
0.369474 0.246316 0.123158
0.496761 0.248380 0.124190
0.626078 0.250431 0.125216
0.757861 0.252620 0.126310
0.894767 0.255648 0.127824
1.000000 0.250000 0.125000
0.000000 0.370622 0.123541
0.124560 0.373679 0.124560
0.251206 0.376808 0.125603
0.380321 0.380321 0.126774
0.513796 0.385347 0.128449
0.648494 0.389097 0.129699
0.779964 0.389982 0.129994
0.910662 0.390284 0.130095
1.000000 0.375000 0.125000
0.000000 0.509416 0.127354
0.129015 0.516059 0.129015
0.259699 0.519399 0.129850
0.390141 0.520188 0.130047
0.520395 0.520395 0.130099
0.650185 0.520148 0.130037
0.779322 0.519548 0.129887
0.907685 0.518677 0.129669
1.000000 0.500000 0.125000
0.000000 0.650404 0.130081
0.130088 0.650440 0.130088
0.259983 0.649957 0.129991
0.389444 0.649073 0.129815
0.518306 0.647883 0.129577
0.646465 0.646465 0.129293
0.773861 0.644884 0.128977
0.900472 0.643194 0.128639
1.000000 0.625000 0.125000
0.000000 0.778405 0.129734
0.129478 0.776868 0.129478
0.258362 0.775087 0.129181
0.386567 0.773135 0.128856
0.514049 0.771073 0.128512
0.640793 0.768952 0.128159
0.766814 0.766814 0.127802
0.892149 0.764699 0.127450
1.000000 0.750000 0.125000
0.000000 0.901126 0.128732
0.128384 0.898689 0.128384
0.256058 0.896202 0.128029
0.383020 0.893713 0.127673
0.509294 0.891264 0.127323
0.634920 0.888889 0.126984
0.759959 0.886619 0.126660
0.884480 0.884480 0.126354
1.000000 0.875000 0.125000
0.000000 1.000000 0.125000
0.125000 1.000000 0.125000
0.250000 1.000000 0.125000
0.375000 1.000000 0.125000
0.500000 1.000000 0.125000
0.625000 1.000000 0.125000
0.750000 1.000000 0.125000
0.875000 1.000000 0.125000
1.000000 1.000000 0.125000
0.000000 0.000000 0.133409
0.068500 0.000000 0.137001
0.165895 0.000000 0.165895
0.293238 0.000000 0.195492
0.431550 0.000000 0.215775
0.570667 0.000000 0.228267
0.705716 0.000000 0.235239
0.839283 0.000000 0.239795
0.971989 0.000000 0.242997
0.000000 0.101921 0.203842
0.110591 0.110591 0.221182
0.231182 0.115591 0.231182
0.355662 0.118554 0.237108
0.482157 0.120539 0.241078
0.609892 0.121978 0.243957
0.738791 0.123132 0.246264
0.869158 0.124165 0.248331
1.000000 0.125000 0.250000
0.000000 0.238724 0.238724
0.121110 0.242220 0.242220
0.244842 0.244842 0.244842
0.370546 0.247031 0.247031
0.498139 0.249070 0.249070
0.627882 0.251153 0.251153
0.760430 0.253477 0.253477
0.898858 0.256817 0.256817
1.000000 0.250000 0.250000
0.000000 0.371668 0.247778
0.124907 0.374722 0.249815
0.251950 0.377925 0.251950
0.381938 0.381938 0.254625
0.515919 0.386939 0.257960
0.649214 0.389528 0.259686
0.780264 0.390132 0.260088
0.910693 0.390297 0.260198
1.000000 0.375000 0.250000
0.000000 0.511768 0.255884
0.129440 0.517762 0.258881
0.259871 0.519741 0.259871
0.390238 0.520317 0.260158
0.520357 0.520357 0.260178
0.649974 0.519979 0.259990
0.778918 0.519279 0.259639
0.907081 0.518332 0.259166
1.000000 0.500000 0.250000
0.000000 0.650483 0.260193
0.130066 0.650328 0.260131
0.259879 0.649697 0.259879
0.389219 0.648699 0.259480
0.517939 0.647424 0.258969
0.645944 0.645944 0.258378
0.773184 0.644320 0.257728
0.899645 0.642603 0.257041
1.000000 0.625000 0.250000
0.000000 0.777915 0.259305
0.129381 0.776286 0.258762
0.258147 0.774440 0.258147
0.386222 0.772444 0.257481
0.513571 0.770357 0.256786
0.640188 0.768226 0.256075
0.766092 0.766092 0.255364
0.891323 0.763991 0.254664
1.000000 0.750000 0.250000
0.000000 0.900308 0.257231
0.128264 0.897847 0.256528
0.255816 0.895355 0.255816
0.382661 0.892875 0.255107
0.508827 0.890447 0.254413
0.634360 0.888105 0.253744
0.759323 0.885876 0.253108
0.883788 0.883788 0.252511
1.000000 0.875000 0.250000
0.000000 1.000000 0.250000
0.125000 1.000000 0.250000
0.250000 1.000000 0.250000
0.375000 1.000000 0.250000
0.500000 1.000000 0.250000
0.625000 1.000000 0.250000
0.750000 1.000000 0.250000
0.875000 1.000000 0.250000
1.000000 1.000000 0.250000
0.000000 0.000000 0.198242
0.071613 0.000000 0.214839
0.177168 0.000000 0.265753
0.304975 0.000000 0.304975
0.441701 0.000000 0.331276
0.577504 0.000000 0.346502
0.710973 0.000000 0.355487
0.843489 0.000000 0.361495
0.975579 0.000000 0.365842
0.000000 0.105309 0.315928
0.112666 0.112666 0.337999
0.233490 0.116745 0.350235
0.357934 0.119311 0.357934
0.484294 0.121074 0.363221
0.611962 0.122392 0.367177
0.740939 0.123490 0.370470
0.871570 0.124510 0.373530
1.000000 0.125000 0.375000
0.000000 0.240046 0.360069
0.121591 0.243182 0.364773
0.245617 0.245617 0.368426
0.371593 0.247729 0.371593
0.499529 0.249764 0.374647
0.629739 0.251896 0.377843
0.763629 0.254543 0.381815
0.902610 0.257889 0.386833
1.000000 0.250000 0.375000
0.000000 0.372702 0.372702
0.125261 0.375783 0.375783
0.252720 0.379080 0.379080
0.383698 0.383698 0.383698
0.517656 0.388242 0.388242
0.649649 0.389790 0.389790
0.780464 0.390232 0.390232
0.910632 0.390271 0.390271
1.000000 0.375000 0.375000
0.000000 0.514082 0.385562
0.129726 0.518905 0.389178
0.260003 0.520005 0.390004
0.390288 0.520384 0.390288
0.520270 0.520270 0.390203
0.649717 0.519774 0.389830
0.778472 0.518982 0.389236
0.906441 0.517966 0.388475
1.000000 0.500000 0.375000
0.000000 0.650492 0.390295
0.130032 0.650161 0.390097
0.259758 0.649394 0.389636
0.388976 0.648293 0.388976
0.517553 0.646941 0.388164
0.645406 0.645406 0.387243
0.772494 0.643745 0.386247
0.898810 0.642007 0.385204
1.000000 0.625000 0.375000
0.000000 0.777391 0.388696
0.129280 0.775680 0.387840
0.257925 0.773776 0.386888
0.385872 0.771743 0.385872
0.513090 0.769636 0.384818
0.639583 0.767499 0.383750
0.765373 0.765373 0.382687
0.890506 0.763291 0.381645
1.000000 0.750000 0.375000
0.000000 0.899479 0.385491
0.128143 0.897002 0.384430
0.255574 0.894509 0.383361
0.382304 0.892043 0.382304
0.508366 0.889641 0.381275
0.633810 0.887334 0.380286
0.758700 0.885150 0.379350
0.883115 0.883115 0.378478
1.000000 0.875000 0.375000
0.000000 1.000000 0.375000
0.125000 1.000000 0.375000
0.250000 1.000000 0.375000
0.375000 1.000000 0.375000
0.500000 1.000000 0.375000
0.625000 1.000000 0.375000
0.750000 1.000000 0.375000
0.875000 1.000000 0.375000
1.000000 1.000000 0.375000
0.000000 0.000000 0.266903
0.076966 0.000000 0.307864
0.187136 0.000000 0.374271
0.315243 0.000000 0.420324
0.450124 0.000000 0.450124
0.583338 0.000000 0.466670
0.715560 0.000000 0.477040
0.847258 0.000000 0.484147
0.978908 0.000000 0.489454
0.000000 0.108235 0.432941
0.114321 0.114321 0.457285
0.235476 0.117738 0.470952
0.359934 0.119978 0.479912
0.486232 0.121558 0.486232
0.613907 0.122781 0.491126
0.743036 0.123839 0.495357
0.873999 0.124857 0.499428
1.000000 0.125000 0.500000
0.000000 0.241221 0.482442
0.122033 0.244066 0.488131
0.246356 0.246356 0.492712
0.372628 0.248419 0.496837
0.500941 0.250471 0.500941
0.631659 0.252663 0.505327
0.767140 0.255713 0.511427
0.905708 0.258774 0.517548
1.000000 0.250000 0.500000
0.000000 0.373737 0.498316
0.125623 0.376869 0.502492
0.253603 0.380404 0.507206
0.385441 0.385441 0.513921
0.518844 0.389133 0.518844
0.649986 0.389992 0.519989
0.780571 0.390286 0.520381
0.910486 0.390208 0.520278
1.000000 0.375000 0.500000
0.000000 0.516166 0.516166
0.129855 0.519420 0.519420
0.260098 0.520197 0.520197
0.390296 0.520394 0.520394
0.520140 0.520140 0.520140
0.649417 0.519534 0.519534
0.777988 0.518659 0.518659
0.905767 0.517581 0.517581
1.000000 0.500000 0.500000
0.000000 0.650435 0.520348
0.129989 0.649944 0.519955
0.259621 0.649053 0.519243
0.388715 0.647858 0.518287
0.517150 0.646437 0.517150
0.644853 0.644853 0.515883
0.771794 0.643162 0.514529
0.897969 0.641406 0.513125
1.000000 0.625000 0.500000
0.000000 0.776836 0.517891
0.129175 0.775051 0.516701
0.257699 0.773097 0.515398
0.385517 0.771033 0.514022
0.512608 0.768911 0.512608
0.638979 0.766774 0.511183
0.764660 0.764660 0.509773
0.889698 0.762599 0.508399
1.000000 0.750000 0.500000
0.000000 0.898643 0.513510
0.128022 0.896155 0.512089
0.255333 0.893667 0.510667
0.381951 0.891218 0.509268
0.507911 0.888845 0.507911
0.633269 0.886577 0.506615
0.758093 0.884441 0.505395
0.882461 0.882461 0.504263
1.000000 0.875000 0.500000
0.000000 1.000000 0.500000
0.125000 1.000000 0.500000
0.250000 1.000000 0.500000
0.375000 1.000000 0.500000
0.500000 1.000000 0.500000
0.625000 1.000000 0.500000
0.750000 1.000000 0.500000
0.875000 1.000000 0.500000
1.000000 1.000000 0.500000
0.000000 0.000000 0.343198
0.083279 0.000000 0.416393
0.195952 0.000000 0.489881
0.324119 0.000000 0.540198
0.456864 0.000000 0.571080
0.588356 0.000000 0.588356
0.719596 0.000000 0.599663
0.850671 0.000000 0.607622
0.982033 0.000000 0.613771
0.000000 0.110717 0.553586
0.115660 0.115660 0.578298
0.237197 0.118599 0.592993
0.361711 0.120570 0.602851
0.488008 0.122002 0.610010
0.615760 0.123152 0.615760
0.745107 0.124185 0.620923
0.876467 0.125210 0.626048
1.000000 0.125000 0.625000
0.000000 0.242276 0.605689
0.122443 0.244886 0.612216
0.247070 0.247070 0.617674
0.373662 0.249108 0.622770
0.502387 0.251193 0.627983
0.633828 0.253531 0.633828
0.770638 0.256879 0.642199
0.907866 0.259390 0.648475
1.000000 0.250000 0.625000
0.000000 0.374781 0.624634
0.125996 0.377988 0.629980
0.254689 0.382033 0.636722
0.387020 0.387020 0.645034
0.519393 0.389544 0.649241
0.650232 0.390139 0.650232
0.780593 0.390297 0.650494
0.910263 0.390113 0.650188
1.000000 0.375000 0.625000
0.000000 0.517841 0.647302
0.129940 0.519758 0.649698
0.260161 0.520322 0.650403
0.390265 0.520353 0.650441
0.519969 0.519969 0.649961
0.649079 0.519263 0.649079
0.777469 0.518312 0.647890
0.905063 0.517179 0.646474
1.000000 0.500000 0.625000
0.000000 0.650320 0.650320
0.129936 0.649681 0.649681
0.259471 0.648677 0.648677
0.388438 0.647397 0.647397
0.516732 0.645914 0.645914
0.644289 0.644289 0.644289
0.771085 0.642571 0.642571
0.897124 0.640803 0.640803
1.000000 0.625000 0.625000
0.000000 0.776253 0.646878
0.129067 0.774403 0.645336
0.257469 0.772406 0.643671
0.385158 0.770317 0.641931
0.512124 0.768185 0.640154
0.638377 0.766052 0.638377
0.763952 0.763952 0.636627
0.888902 0.761916 0.634930
1.000000 0.750000 0.625000
0.000000 0.897801 0.641286
0.127901 0.895308 0.639506
0.255094 0.892829 0.637735
0.381601 0.890402 0.636002
0.507464 0.888062 0.634330
0.632740 0.885836 0.632740
0.757500 0.883750 0.631250
0.881828 0.881828 0.629877
1.000000 0.875000 0.625000
0.000000 1.000000 0.625000
0.125000 1.000000 0.625000
0.250000 1.000000 0.625000
0.375000 1.000000 0.625000
0.500000 1.000000 0.625000
0.625000 1.000000 0.625000
0.750000 1.000000 0.625000
0.875000 1.000000 0.625000
1.000000 1.000000 0.625000
0.000000 0.000000 0.430938
0.088877 0.000000 0.533259
0.203721 0.000000 0.611164
0.331659 0.000000 0.663318
0.462281 0.000000 0.693421
0.592703 0.000000 0.711244
0.723179 0.000000 0.723179
0.853799 0.000000 0.731827
0.985006 0.000000 0.738755
0.000000 0.112769 0.676613
0.116804 0.116804 0.700823
0.238701 0.119351 0.716103
0.363305 0.121102 0.726609
0.489658 0.122415 0.734487
0.617547 0.123509 0.741057
0.747175 0.124529 0.747175
0.878992 0.125570 0.753422
1.000000 0.125000 0.750000
0.000000 0.243233 0.729699
0.122830 0.245659 0.736978
0.247767 0.247767 0.743301
0.374705 0.249803 0.749410
0.503875 0.251937 0.755812
0.636515 0.254606 0.763818
0.773830 0.257943 0.773830
0.908888 0.259682 0.779047
1.000000 0.250000 0.750000
0.000000 0.375843 0.751685
0.126382 0.379145 0.758290
0.255864 0.383796 0.767593
0.388303 0.388303 0.776607
0.519736 0.389802 0.779605
0.650394 0.390236 0.780473
0.780537 0.390268 0.780537
0.909969 0.389987 0.779974
1.000000 0.375000 0.750000
0.000000 0.518949 0.778423
0.130004 0.520018 0.780027
0.260193 0.520386 0.780579
0.390198 0.520264 0.780396
0.519761 0.519761 0.779642
0.648705 0.518964 0.778447
0.776918 0.517945 0.776918
0.904334 0.516762 0.775143
1.000000 0.500000 0.750000
0.000000 0.650150 0.780180
0.129875 0.649376 0.779251
0.259308 0.648270 0.777924
0.388148 0.646913 0.776296
0.516300 0.645376 0.774451
0.643713 0.643713 0.772456
0.770369 0.641974 0.770369
0.896277 0.640198 0.768238
1.000000 0.625000 0.750000
0.000000 0.775646 0.775646
0.128956 0.773739 0.773739
0.257235 0.771704 0.771704
0.384798 0.769596 0.769596
0.511639 0.767459 0.767459
0.637778 0.765334 0.765334
0.763252 0.763252 0.763252
0.888118 0.761244 0.761244
1.000000 0.750000 0.750000
0.000000 0.896955 0.768819
0.127780 0.894463 0.766682
0.254856 0.891997 0.764569
0.381255 0.889596 0.762511
0.507024 0.887291 0.760535
0.632222 0.885111 0.758666
0.756924 0.883078 0.756924
0.881215 0.881215 0.755327
1.000000 0.875000 0.750000
0.000000 1.000000 0.750000
0.125000 1.000000 0.750000
0.250000 1.000000 0.750000
0.375000 1.000000 0.750000
0.500000 1.000000 0.750000
0.625000 1.000000 0.750000
0.750000 1.000000 0.750000
0.875000 1.000000 0.750000
1.000000 1.000000 0.750000
0.000000 0.000000 0.541240
0.093827 0.000000 0.656786
0.210514 0.000000 0.736799
0.337906 0.000000 0.788447
0.466909 0.000000 0.817090
0.596498 0.000000 0.835097
0.726390 0.000000 0.847455
0.856700 0.000000 0.856700
0.987872 0.000000 0.864388
0.000000 0.114401 0.800808
0.117789 0.117789 0.824522
0.240025 0.120013 0.840089
0.364750 0.121583 0.851084
0.491210 0.122802 0.859617
0.619293 0.123859 0.867010
0.749258 0.124876 0.874135
0.881591 0.125942 0.881591
1.000000 0.125000 0.875000
0.000000 0.244112 0.854394
0.123198 0.246396 0.862387
0.248457 0.248457 0.869599
0.375765 0.250510 0.876786
0.505414 0.252707 0.884474
0.639447 0.255779 0.895226
0.776447 0.258816 0.905855
0.909500 0.259857 0.909500
1.000000 0.250000 0.875000
0.000000 0.376930 0.879504
0.126829 0.380488 0.887805
0.257023 0.385534 0.899579
0.389168 0.389168 0.908059
0.520002 0.390001 0.910003
0.650479 0.390287 0.910671
0.780408 0.390204 0.910476
0.909610 0.389833 0.909610
1.000000 0.375000 0.875000
0.000000 0.519441 0.909022
0.130051 0.520206 0.910360
0.260197 0.520394 0.910689
0.390098 0.520131 0.910230
0.519520 0.519520 0.909159
0.648300 0.518640 0.907620
0.776339 0.517559 0.905729
0.903581 0.516332 0.903581
1.000000 0.500000 0.875000
0.000000 0.649930 0.909903
0.129807 0.649033 0.908647
0.259133 0.647833 0.906967
0.387845 0.646408 0.904972
0.515858 0.644822 0.902751
0.643129 0.643129 0.900381
0.769648 0.641373 0.897922
0.895430 0.639593 0.895430
1.000000 0.625000 0.875000
0.000000 0.775016 0.904185
0.128843 0.773059 0.901902
0.256998 0.770994 0.899493
0.384436 0.768871 0.897016
0.511156 0.766734 0.894523
0.637183 0.764620 0.892057
0.762560 0.762560 0.889654
0.887346 0.760583 0.887346
1.000000 0.750000 0.875000
0.000000 0.896108 0.896108
0.127660 0.893620 0.893620
0.254621 0.891173 0.891173
0.380915 0.888801 0.888801
0.506592 0.886536 0.886536
0.631716 0.884403 0.884403
0.756365 0.882425 0.882425
0.880624 0.880624 0.880624
1.000000 0.875000 0.875000
0.000000 1.000000 0.875000
0.125000 1.000000 0.875000
0.250000 1.000000 0.875000
0.375000 1.000000 0.875000
0.500000 1.000000 0.875000
0.625000 1.000000 0.875000
0.750000 1.000000 0.875000
0.875000 1.000000 0.875000
1.000000 1.000000 0.875000
0.000000 0.000000 0.668859
0.098205 0.000000 0.785637
0.216381 0.000000 0.865523
0.342891 0.000000 0.914377
0.470890 0.000000 0.941781
0.599838 0.000000 0.959741
0.729301 0.000000 0.972401
0.859426 0.000000 0.982201
0.990669 0.000000 0.990669
0.000000 0.115728 0.925822
0.118643 0.118643 0.949144
0.241202 0.120601 0.964809
0.366077 0.122026 0.976206
0.492688 0.123172 0.985377
0.621018 0.124204 0.993629
0.750000 0.125000 1.000000
0.875000 0.125000 1.000000
1.000000 0.125000 1.000000
0.000000 0.244930 0.979721
0.123554 0.247109 0.988434
0.249146 0.249146 0.996585
0.375000 0.250000 1.000000
0.500000 0.250000 1.000000
0.625000 0.250000 1.000000
0.750000 0.250000 1.000000
0.875000 0.250000 1.000000
1.000000 0.250000 1.000000
0.000000 0.375000 1.000000
0.125000 0.375000 1.000000
0.250000 0.375000 1.000000
0.375000 0.375000 1.000000
0.500000 0.375000 1.000000
0.625000 0.375000 1.000000
0.750000 0.375000 1.000000
0.875000 0.375000 1.000000
1.000000 0.375000 1.000000
0.000000 0.500000 1.000000
0.125000 0.500000 1.000000
0.250000 0.500000 1.000000
0.375000 0.500000 1.000000
0.500000 0.500000 1.000000
0.625000 0.500000 1.000000
0.750000 0.500000 1.000000
0.875000 0.500000 1.000000
1.000000 0.500000 1.000000
0.000000 0.625000 1.000000
0.125000 0.625000 1.000000
0.250000 0.625000 1.000000
0.375000 0.625000 1.000000
0.500000 0.625000 1.000000
0.625000 0.625000 1.000000
0.750000 0.625000 1.000000
0.875000 0.625000 1.000000
1.000000 0.625000 1.000000
0.000000 0.750000 1.000000
0.125000 0.750000 1.000000
0.250000 0.750000 1.000000
0.375000 0.750000 1.000000
0.500000 0.750000 1.000000
0.625000 0.750000 1.000000
0.750000 0.750000 1.000000
0.875000 0.750000 1.000000
1.000000 0.750000 1.000000
0.000000 0.875000 1.000000
0.125000 0.875000 1.000000
0.250000 0.875000 1.000000
0.375000 0.875000 1.000000
0.500000 0.875000 1.000000
0.625000 0.875000 1.000000
0.750000 0.875000 1.000000
0.875000 0.875000 1.000000
1.000000 0.875000 1.000000
0.000000 1.000000 1.000000
0.125000 1.000000 1.000000
0.250000 1.000000 1.000000
0.375000 1.000000 1.000000
0.500000 1.000000 1.000000
0.625000 1.000000 1.000000
0.750000 1.000000 1.000000
0.875000 1.000000 1.000000
1.000000 1.000000 1.000000
