luts/tone-target-match.cube
TITLE "Tone Target Match"
LUT_3D_SIZE 33
DOMAIN_MIN 0.0 0.0 0.0
DOMAIN_MAX 1.0 1.0 1.0
0.000000 0.000000 0.000000
0.017327 0.000000 0.000000
0.033773 0.000000 0.000000
0.049852 0.000000 0.000000
0.066082 0.000000 0.000000
0.082977 0.000000 0.000000
0.101054 0.000000 0.000000
0.120828 0.000000 0.000000
0.142815 0.000000 0.000000
0.168728 0.000000 0.000000
0.199137 0.000000 0.000000
0.231499 0.000000 0.000000
0.264870 0.000000 0.000000
0.299138 0.000000 0.000000
0.334153 0.000000 0.000000
0.369763 0.000000 0.000000
0.405819 0.000000 0.000000
0.442170 0.000000 0.000000
0.478664 0.000000 0.000000
0.515151 0.000000 0.000000
0.551480 0.000000 0.000000
0.587501 0.000000 0.000000
0.623062 0.000000 0.000000
0.658018 0.000000 0.000000
0.692584 0.000000 0.000000
0.726965 0.000000 0.000000
0.761176 0.000000 0.000000
0.795233 0.000000 0.000000
0.829151 0.000000 0.000000
0.862945 0.000000 0.000000
0.896630 0.000000 0.000000
0.930222 0.000000 0.000000
0.963735 0.000000 0.000000
0.000000 0.016562 0.000000
0.016528 0.016528 0.000000
0.033331 0.016665 0.000000
0.050925 0.016975 0.000000
0.069825 0.017456 0.000000
0.090612 0.018122 0.000000
0.114961 0.019160 0.000000
0.142379 0.020340 0.000000
0.171442 0.021430 0.000000
0.201814 0.022424 0.000000
0.233317 0.023332 0.000000
0.265776 0.024161 0.000000
0.299020 0.024918 0.000000
0.332885 0.025607 0.000000
0.367210 0.026229 0.000000
0.401836 0.026789 0.000000
0.436605 0.027288 0.000000
0.471362 0.027727 0.000000
0.505950 0.028108 0.000000
0.540217 0.028432 0.000000
0.574065 0.028703 0.000000
0.607762 0.028941 0.000000
0.641366 0.029153 0.000000
0.674881 0.029343 0.000000
0.708313 0.029513 0.000000
0.741667 0.029667 0.000000
0.774951 0.029806 0.000000
0.808175 0.029932 0.000000
0.841347 0.030048 0.000000
0.874478 0.030154 0.000000
0.907579 0.030253 0.000000
0.940661 0.030344 0.000000
0.973736 0.030429 0.000000
0.000000 0.034261 0.000000
0.017674 0.035348 0.000000
0.036922 0.036922 0.000000
0.058770 0.039180 0.000000
0.082997 0.041499 0.000000
0.109012 0.043605 0.000000
0.136583 0.045528 0.000000
0.165498 0.047285 0.000000
0.195561 0.048890 0.000000
0.226590 0.050353 0.000000
0.258407 0.051681 0.000000
0.290843 0.052881 0.000000
0.323731 0.053955 0.000000
0.356909 0.054909 0.000000
0.390216 0.055745 0.000000
0.423494 0.056466 0.000000
0.456584 0.057073 0.000000
0.489482 0.057586 0.000000
0.522378 0.058042 0.000000
0.555265 0.058449 0.000000
0.588136 0.058814 0.000000
0.620986 0.059142 0.000000
0.653816 0.059438 0.000000
0.686625 0.059707 0.000000
0.719417 0.059951 0.000000
0.752196 0.060176 0.000000
0.784967 0.060382 0.000000
0.817739 0.060573 0.000000
0.850517 0.060751 0.000000
0.883312 0.060918 0.000000
0.916132 0.061075 0.000000
0.948988 0.061225 0.000000
0.981890 0.061368 0.000000
0.000000 0.060068 0.000000
0.021144 0.063432 0.000000
0.044325 0.066488 0.000000
0.069279 0.069279 0.000000
0.095773 0.071830 0.000000
0.123597 0.074158 0.000000
0.152556 0.076278 0.000000
0.182464 0.078199 0.000000
0.213144 0.079929 0.000000
0.244423 0.081474 0.000000
0.276135 0.082841 0.000000
0.308114 0.084031 0.000000
0.340199 0.085050 0.000000
0.372237 0.085901 0.000000
0.404307 0.086637 0.000000
0.436466 0.087293 0.000000
0.468690 0.087879 0.000000
0.500964 0.088405 0.000000
0.533276 0.088879 0.000000
0.565617 0.089308 0.000000
0.597983 0.089697 0.000000
0.630370 0.090053 0.000000
0.662780 0.090379 0.000000
0.695213 0.090680 0.000000
0.727673 0.090959 0.000000
0.760165 0.091220 0.000000
0.792693 0.091465 0.000000
0.825265 0.091696 0.000000
0.857889 0.091917 0.000000
0.890573 0.092128 0.000000
0.923326 0.092333 0.000000
0.956158 0.092531 0.000000
0.989079 0.092726 0.000000
0.000000 0.093646 0.000000
0.024234 0.096937 0.000000
0.049969 0.099938 0.000000
0.077000 0.102667 0.000000
0.105134 0.105134 0.000000
0.134188 0.107350 0.000000
0.163985 0.109323 0.000000
0.194353 0.111059 0.000000
0.225125 0.112562 0.000000
0.256136 0.113838 0.000000
0.287264 0.114905 0.000000
0.318578 0.115846 0.000000
0.350056 0.116685 0.000000
0.381669 0.117437 0.000000
0.413390 0.118111 0.000000
0.445201 0.118720 0.000000
0.477088 0.119272 0.000000
0.509039 0.119774 0.000000
0.541049 0.120233 0.000000
0.573112 0.120655 0.000000
0.605227 0.121045 0.000000
0.637392 0.121408 0.000000
0.669611 0.121747 0.000000
0.701886 0.122067 0.000000
0.734221 0.122370 0.000000
0.766622 0.122660 0.000000
0.799096 0.122938 0.000000
0.831650 0.123207 0.000000
0.864292 0.123470 0.000000
0.897031 0.123728 0.000000
0.929877 0.123984 0.000000
0.962838 0.124237 0.000000
0.995927 0.124491 0.000000
0.000000 0.129493 0.000000
0.026492 0.132462 0.000000
0.054048 0.135120 0.000000
0.082487 0.137478 0.000000
0.111633 0.139541 0.000000
0.141316 0.141316 0.000000
0.171370 0.142808 0.000000
0.201706 0.144076 0.000000
0.232326 0.145204 0.000000
0.263179 0.146211 0.000000
0.294226 0.147113 0.000000
0.325436 0.147925 0.000000
0.356782 0.148659 0.000000
0.388245 0.149325 0.000000
0.419810 0.149932 0.000000
0.451465 0.150488 0.000000
0.483203 0.151001 0.000000
0.515016 0.151475 0.000000
0.546904 0.151918 0.000000
0.578863 0.152332 0.000000
0.610896 0.152724 0.000000
0.643004 0.153096 0.000000
0.675191 0.153453 0.000000
0.707462 0.153796 0.000000
0.739823 0.154130 0.000000
0.772280 0.154456 0.000000
0.804840 0.154777 0.000000
0.837513 0.155095 0.000000
0.870306 0.155412 0.000000
0.903230 0.155729 0.000000
0.936294 0.156049 0.000000
0.969508 0.156372 0.000000
1.000000 0.156250 0.000000
0.000000 0.165915 0.000000
0.028044 0.168265 0.000000
0.056757 0.170270 0.000000
0.085972 0.171945 0.000000
0.115601 0.173402 0.000000
0.145583 0.174700 0.000000
0.175861 0.175861 0.000000
0.206386 0.176902 0.000000
0.237122 0.177841 0.000000
0.268036 0.178691 0.000000
0.299105 0.179463 0.000000
0.330309 0.180168 0.000000
0.361631 0.180816 0.000000
0.393062 0.181413 0.000000
0.424592 0.181968 0.000000
0.456215 0.182486 0.000000
0.487928 0.182973 0.000000
0.519729 0.183434 0.000000
0.551619 0.183873 0.000000
0.583600 0.184295 0.000000
0.615674 0.184702 0.000000
0.647847 0.185099 0.000000
0.680122 0.185488 0.000000
0.712508 0.185872 0.000000
0.745010 0.186252 0.000000
0.777636 0.186633 0.000000
0.810396 0.187014 0.000000
0.843297 0.187399 0.000000
0.876350 0.187789 0.000000
0.909564 0.188186 0.000000
0.942951 0.188590 0.000000
0.976520 0.189004 0.000000
1.000000 0.187500 0.000000
0.000000 0.201244 0.000000
0.028982 0.202874 0.000000
0.058379 0.204327 0.000000
0.088126 0.205628 0.000000
0.118170 0.206798 0.000000
0.148467 0.207853 0.000000
0.178980 0.208810 0.000000
0.209682 0.209682 0.000000
0.240547 0.210479 0.000000
0.271558 0.211212 0.000000
0.302700 0.211890 0.000000
0.333961 0.212520 0.000000
0.365333 0.213111 0.000000
0.396811 0.213667 0.000000
0.428391 0.214195 0.000000
0.460071 0.214700 0.000000
0.491852 0.215185 0.000000
0.523736 0.215656 0.000000
0.555724 0.216115 0.000000
0.587822 0.216566 0.000000
0.620035 0.217012 0.000000
0.652368 0.217456 0.000000
0.684828 0.217900 0.000000
0.717424 0.218346 0.000000
0.750163 0.218797 0.000000
0.783053 0.219255 0.000000
0.816105 0.219721 0.000000
0.849328 0.220196 0.000000
0.882732 0.220683 0.000000
0.916328 0.221183 0.000000
0.950321 0.221742 0.000000
0.984952 0.222409 0.000000
1.000000 0.218750 0.000000
0.000000 0.235507 0.000000
0.029599 0.236794 0.000000
0.059489 0.237957 0.000000
0.089630 0.239013 0.000000
0.119988 0.239977 0.000000
0.150537 0.240860 0.000000
0.181255 0.241674 0.000000
0.212124 0.242428 0.000000
0.243131 0.243131 0.000000
0.274265 0.243791 0.000000
0.305518 0.244414 0.000000
0.336885 0.245007 0.000000
0.368363 0.245576 0.000000
0.399951 0.246124 0.000000
0.431648 0.246656 0.000000
0.463457 0.247177 0.000000
0.495380 0.247690 0.000000
0.527422 0.248199 0.000000
0.559588 0.248706 0.000000
0.591883 0.249214 0.000000
0.624314 0.249726 0.000000
0.656889 0.250244 0.000000
0.689616 0.250770 0.000000
0.722504 0.251306 0.000000
0.755561 0.251854 0.000000
0.788798 0.252415 0.000000
0.822237 0.252996 0.000000
0.856186 0.253685 0.000000
0.890681 0.254480 0.000000
0.925590 0.255335 0.000000
0.960772 0.256206 0.000000
0.996073 0.257051 0.000000
1.000000 0.250000 0.000000
0.000000 0.269296 0.000000
0.030038 0.270345 0.000000
0.060291 0.271309 0.000000
0.090733 0.272199 0.000000
0.121345 0.273026 0.000000
0.152110 0.273798 0.000000
0.183016 0.274525 0.000000
0.214054 0.275213 0.000000
0.245217 0.275869 0.000000
0.276499 0.276499 0.000000
0.307899 0.277109 0.000000
0.339415 0.277703 0.000000
0.371047 0.278285 0.000000
0.402798 0.278860 0.000000
0.434671 0.279431 0.000000
0.466670 0.280002 0.000000
0.498799 0.280575 0.000000
0.531066 0.281153 0.000000
0.563477 0.281738 0.000000
0.596038 0.282334 0.000000
0.628760 0.282942 0.000000
0.661649 0.283564 0.000000
0.694715 0.284201 0.000000
0.728040 0.284885 0.000000
0.761894 0.285710 0.000000
0.796209 0.286635 0.000000
0.830871 0.287609 0.000000
0.865750 0.288583 0.000000
0.900708 0.289513 0.000000
0.935596 0.290357 0.000000
0.970253 0.291076 0.000000
1.000000 0.290323 0.000000
1.000000 0.281250 0.000000
0.000000 0.302785 0.000000
0.030368 0.303681 0.000000
0.060904 0.304519 0.000000
0.091593 0.305310 0.000000
0.122424 0.306061 0.000000
0.153390 0.306779 0.000000
0.184482 0.307470 0.000000
0.215699 0.308141 0.000000
0.247036 0.308796 0.000000
0.278495 0.309439 0.000000
0.310076 0.310076 0.000000
0.341781 0.310710 0.000000
0.373613 0.311344 0.000000
0.405577 0.311983 0.000000
0.437679 0.312628 0.000000
0.469923 0.313282 0.000000
0.502318 0.313949 0.000000
0.534870 0.314629 0.000000
0.567588 0.315327 0.000000
0.600480 0.316042 0.000000
0.633712 0.316856 0.000000
0.667422 0.317820 0.000000
0.701523 0.318874 0.000000
0.735914 0.319962 0.000000
0.770478 0.321033 0.000000
0.805091 0.322036 0.000000
0.839613 0.322928 0.000000
0.873898 0.323666 0.000000
0.907789 0.324210 0.000000
0.941120 0.324524 0.000000
0.974106 0.324702 0.000000
1.000000 0.322581 0.000000
1.000000 0.312500 0.000000
0.000000 0.336147 0.000000
0.030633 0.336959 0.000000
0.061407 0.337737 0.000000
0.092315 0.338488 0.000000
0.123352 0.339219 0.000000
0.154515 0.339934 0.000000
0.185803 0.340639 0.000000
0.217215 0.341338 0.000000
0.248752 0.342035 0.000000
0.280418 0.342734 0.000000
0.312216 0.343438 0.000000
0.344151 0.344151 0.000000
0.376228 0.344876 0.000000
0.408453 0.345614 0.000000
0.440834 0.346369 0.000000
0.473377 0.347143 0.000000
0.506107 0.347949 0.000000
0.539228 0.348912 0.000000
0.572754 0.350016 0.000000
0.606612 0.351196 0.000000
0.640713 0.352392 0.000000
0.674957 0.353549 0.000000
0.709228 0.354614 0.000000
0.743399 0.355538 0.000000
0.777333 0.356277 0.000000
0.810883 0.356788 0.000000
0.843940 0.357052 0.000000
0.876852 0.357236 0.000000
0.909720 0.357390 0.000000
0.942541 0.357515 0.000000
0.975312 0.357614 0.000000
1.000000 0.354839 0.000000
1.000000 0.343750 0.000000
0.000000 0.369552 0.000000
0.030862 0.370343 0.000000
0.061853 0.371118 0.000000
0.092971 0.371884 0.000000
0.124215 0.372645 0.000000
0.155586 0.373406 0.000000
0.187085 0.374170 0.000000
0.218716 0.374942 0.000000
0.250482 0.375724 0.000000
0.282389 0.376519 0.000000
0.314443 0.377331 0.000000
0.346649 0.378162 0.000000
0.379015 0.379015 0.000000
0.411602 0.379941 0.000000
0.444565 0.381056 0.000000
0.477873 0.382298 0.000000
0.511466 0.383599 0.000000
0.545269 0.384895 0.000000
0.579191 0.386127 0.000000
0.613129 0.387239 0.000000
0.646966 0.388180 0.000000
0.680576 0.388900 0.000000
0.713820 0.389356 0.000000
0.746710 0.389588 0.000000
0.779553 0.389777 0.000000
0.812361 0.389933 0.000000
0.845129 0.390059 0.000000
0.877853 0.390157 0.000000
0.910532 0.390228 0.000000
0.943161 0.390273 0.000000
0.975738 0.390295 0.000000
1.000000 0.387097 0.000000
1.000000 0.375000 0.000000
0.000000 0.403175 0.000000
0.031077 0.403999 0.000000
0.062281 0.404824 0.000000
0.093613 0.405654 0.000000
0.125075 0.406494 0.000000
0.156672 0.407346 0.000000
0.188406 0.408214 0.000000
0.220285 0.409101 0.000000
0.252313 0.410009 0.000000
0.284498 0.410942 0.000000
0.316940 0.412021 0.000000
0.349706 0.413289 0.000000
0.382769 0.414666 0.000000
0.416081 0.416081 0.000000
0.449580 0.417467 0.000000
0.483186 0.418761 0.000000
0.516805 0.419904 0.000000
0.550332 0.420842 0.000000
0.583649 0.421524 0.000000
0.616629 0.421904 0.000000
0.649434 0.422132 0.000000
0.682215 0.422324 0.000000
0.714968 0.422481 0.000000
0.747688 0.422606 0.000000
0.780372 0.422701 0.000000
0.813015 0.422768 0.000000
0.845615 0.422808 0.000000
0.878170 0.422822 0.000000
0.910675 0.422813 0.000000
0.943130 0.422782 0.000000
0.975531 0.422730 0.000000
1.000000 0.419355 0.000000
1.000000 0.406250 0.000000
0.000000 0.437186 0.000000
0.031292 0.438095 0.000000
0.062717 0.439018 0.000000
0.094277 0.439960 0.000000
0.125978 0.440923 0.000000
0.157825 0.441911 0.000000
0.189835 0.442947 0.000000
0.222097 0.444193 0.000000
0.254635 0.445611 0.000000
0.287433 0.447118 0.000000
0.320456 0.448638 0.000000
0.353652 0.450102 0.000000
0.386952 0.451444 0.000000
0.420272 0.452601 0.000000
0.453517 0.453517 0.000000
0.486576 0.454138 0.000000
0.519374 0.454453 0.000000
0.552116 0.454683 0.000000
0.584841 0.454876 0.000000
0.617544 0.455033 0.000000
0.650222 0.455155 0.000000
0.682870 0.455246 0.000000
0.715483 0.455307 0.000000
0.748059 0.455340 0.000000
0.780594 0.455347 0.000000
0.813086 0.455328 0.000000
0.845531 0.455286 0.000000
0.877929 0.455222 0.000000
0.910275 0.455138 0.000000
0.942570 0.455034 0.000000
0.974812 0.454912 0.000000
1.000000 0.451613 0.000000
1.000000 0.437500 0.000000
0.000000 0.471759 0.000000
0.031520 0.472800 0.000000
0.063182 0.473868 0.000000
0.095009 0.475045 0.000000
0.127055 0.476458 0.000000
0.159340 0.478021 0.000000
0.191860 0.479650 0.000000
0.224591 0.481266 0.000000
0.257490 0.482794 0.000000
0.290500 0.484167 0.000000
0.323547 0.485320 0.000000
0.356541 0.486193 0.000000
0.389384 0.486729 0.000000
0.422074 0.487008 0.000000
0.454758 0.487241 0.000000
0.487433 0.487433 0.000000
0.520093 0.487587 0.000000
0.552733 0.487706 0.000000
0.585350 0.487791 0.000000
0.617938 0.487846 0.000000
0.650494 0.487870 0.000000
0.683014 0.487867 0.000000
0.715496 0.487838 0.000000
0.747936 0.487784 0.000000
0.780332 0.487708 0.000000
0.812682 0.487609 0.000000
0.844984 0.487491 0.000000
0.877237 0.487354 0.000000
0.909437 0.487199 0.000000
0.941585 0.487027 0.000000
0.973680 0.486840 0.000000
1.000000 0.483871 0.000000
1.000000 0.468750 0.000000
0.000000 0.507239 0.000000
0.031801 0.508815 0.000000
0.063815 0.510518 0.000000
0.096049 0.512260 0.000000
0.128490 0.513958 0.000000
0.161105 0.515537 0.000000
0.193846 0.516923 0.000000
0.226647 0.518051 0.000000
0.259429 0.518859 0.000000
0.292103 0.519295 0.000000
0.324732 0.519571 0.000000
0.357364 0.519803 0.000000
0.389994 0.519993 0.000000
0.422616 0.520143 0.000000
0.455225 0.520257 0.000000
0.487815 0.520336 0.000000
0.520382 0.520382 0.000000
0.552922 0.520397 0.000000
0.585431 0.520383 0.000000
0.617907 0.520343 0.000000
0.650345 0.520276 0.000000
0.682744 0.520186 0.000000
0.715101 0.520073 0.000000
0.747413 0.519939 0.000000
0.779679 0.519786 0.000000
0.811897 0.519614 0.000000
0.844065 0.519425 0.000000
0.876182 0.519219 0.000000
0.908248 0.518999 0.000000
0.940260 0.518764 0.000000
0.972219 0.518517 0.000000
1.000000 0.516129 0.000000
1.000000 0.500000 0.000000
0.000000 0.544943 0.000000
0.032159 0.546710 0.000000
0.064508 0.548322 0.000000
0.097006 0.549703 0.000000
0.129596 0.550785 0.000000
0.162207 0.551502 0.000000
0.194775 0.551863 0.000000
0.227351 0.552139 0.000000
0.259938 0.552369 0.000000
0.292529 0.552555 0.000000
0.325118 0.552701 0.000000
0.357699 0.552808 0.000000
0.390267 0.552878 0.000000
0.422817 0.552915 0.000000
0.455346 0.552920 0.000000
0.487848 0.552895 0.000000
0.520321 0.552841 0.000000
0.552761 0.552761 0.000000
0.585166 0.552657 0.000000
0.617532 0.552528 0.000000
0.649857 0.552379 0.000000
0.682139 0.552208 0.000000
0.714377 0.552019 0.000000
0.746568 0.551811 0.000000
0.778711 0.551587 0.000000
0.810805 0.551347 0.000000
0.842848 0.551093 0.000000
0.874840 0.550825 0.000000
0.906780 0.550545 0.000000
0.938668 0.550254 0.000000
0.970502 0.549951 0.000000
1.000000 0.548387 0.000000
1.000000 0.531250 0.000000
0.000000 0.582496 0.000000
0.032417 0.583509 0.000000
0.064901 0.584112 0.000000
0.097406 0.584438 0.000000
0.129936 0.584712 0.000000
0.162483 0.584938 0.000000
0.195040 0.585119 0.000000
0.227600 0.585258 0.000000
0.260159 0.585357 0.000000
0.292709 0.585419 0.000000
0.325247 0.585445 0.000000
0.357768 0.585439 0.000000
0.390267 0.585401 0.000000
0.422741 0.585334 0.000000
0.455186 0.585239 0.000000
0.487599 0.585119 0.000000
0.519978 0.584975 0.000000
0.552319 0.584808 0.000000
0.584620 0.584620 0.000000
0.616880 0.584412 0.000000
0.649096 0.584186 0.000000
0.681266 0.583943 0.000000
0.713390 0.583683 0.000000
0.745467 0.583409 0.000000
0.777494 0.583120 0.000000
0.809471 0.582819 0.000000
0.841398 0.582506 0.000000
0.873273 0.582182 0.000000
0.905097 0.581848 0.000000
0.936869 0.581505 0.000000
0.968589 0.581153 0.000000
1.000000 0.580645 0.000000
1.000000 0.562500 0.000000
0.000000 0.617018 0.000000
0.032489 0.617289 0.000000
0.065001 0.617510 0.000000
0.097529 0.617684 0.000000
0.130066 0.617815 0.000000
0.162607 0.617905 0.000000
0.195144 0.617956 0.000000
0.227674 0.617971 0.000000
0.260190 0.617952 0.000000
0.292690 0.617901 0.000000
0.325168 0.617819 0.000000
0.357621 0.617710 0.000000
0.390046 0.617573 0.000000
0.422440 0.617412 0.000000
0.454799 0.617228 0.000000
0.487122 0.617022 0.000000
0.519406 0.616795 0.000000
0.551649 0.616549 0.000000
0.583850 0.616286 0.000000
0.616006 0.616006 0.000000
0.648117 0.615711 0.000000
0.680181 0.615402 0.000000
0.712197 0.615079 0.000000
0.744164 0.614744 0.000000
0.776082 0.614398 0.000000
0.807950 0.614042 0.000000
0.839768 0.613677 0.000000
0.871535 0.613302 0.000000
0.903251 0.612920 0.000000
0.934917 0.612532 0.000000
0.966531 0.612136 0.000000
0.998095 0.611736 0.000000
1.000000 0.593750 0.000000
0.000000 0.650249 0.000000
0.032519 0.650371 0.000000
0.065045 0.650451 0.000000
0.097574 0.650490 0.000000
0.130099 0.650493 0.000000
0.162615 0.650460 0.000000
0.195118 0.650394 0.000000
0.227604 0.650297 0.000000
0.260069 0.650171 0.000000
0.292508 0.650018 0.000000
0.324920 0.649840 0.000000
0.357300 0.649637 0.000000
0.389647 0.649412 0.000000
0.421958 0.649166 0.000000
0.454230 0.648901 0.000000
0.486463 0.648617 0.000000
0.518653 0.648316 0.000000
0.550800 0.648000 0.000000
0.582902 0.647669 0.000000
0.614959 0.647325 0.000000
0.646968 0.646968 0.000000
0.678930 0.646600 0.000000
0.710843 0.646221 0.000000
0.742708 0.645833 0.000000
0.774523 0.645436 0.000000
0.806289 0.645031 0.000000
0.838005 0.644619 0.000000
0.869672 0.644201 0.000000
0.901288 0.643777 0.000000
0.932856 0.643349 0.000000
0.964374 0.642916 0.000000
0.995843 0.642480 0.000000
1.000000 0.625000 0.000000
0.000000 0.683020 0.000000
0.032524 0.683009 0.000000
0.065044 0.682962 0.000000
0.097554 0.682881 0.000000
0.130051 0.682768 0.000000
0.162530 0.682625 0.000000
0.194987 0.682454 0.000000
0.227419 0.682257 0.000000
0.259823 0.682035 0.000000
0.292196 0.681791 0.000000
0.324536 0.681525 0.000000
0.356840 0.681239 0.000000
0.389106 0.680935 0.000000
0.421332 0.680613 0.000000
0.453517 0.680275 0.000000
0.485659 0.679923 0.000000
0.517757 0.679556 0.000000
0.549810 0.679177 0.000000
0.581817 0.678786 0.000000
0.613777 0.678385 0.000000
0.645689 0.677974 0.000000
0.677554 0.677554 0.000000
0.709370 0.677126 0.000000
0.741138 0.676691 0.000000
0.772857 0.676250 0.000000
0.804527 0.675803 0.000000
0.836149 0.675351 0.000000
0.867723 0.674895 0.000000
0.899248 0.674436 0.000000
0.930726 0.673974 0.000000
0.962156 0.673509 0.000000
0.993540 0.673043 0.000000
1.000000 0.656250 0.000000
0.000000 0.715359 0.000000
0.032510 0.715229 0.000000
0.065006 0.715069 0.000000
0.097484 0.714880 0.000000
0.129939 0.714664 0.000000
0.162369 0.714423 0.000000
0.194770 0.714158 0.000000
0.227141 0.713872 0.000000
0.259478 0.713565 0.000000
0.291780 0.713240 0.000000
0.324044 0.712896 0.000000
0.356268 0.712537 0.000000
0.388452 0.712162 0.000000
0.420593 0.711773 0.000000
0.452691 0.711371 0.000000
0.484744 0.710958 0.000000
0.516752 0.710533 0.000000
0.548713 0.710099 0.000000
0.580628 0.709656 0.000000
0.612495 0.709205 0.000000
0.644315 0.708747 0.000000
0.676088 0.708282 0.000000
0.707812 0.707812 0.000000
0.739489 0.707337 0.000000
0.771118 0.706858 0.000000
0.802700 0.706376 0.000000
0.834234 0.705891 0.000000
0.865722 0.705403 0.000000
0.897164 0.704915 0.000000
0.928560 0.704425 0.000000
0.959911 0.703935 0.000000
0.991218 0.703445 0.000000
1.000000 0.687500 0.000000
0.000000 0.747295 0.000000
0.032481 0.747060 0.000000
0.064939 0.746799 0.000000
0.097371 0.746514 0.000000
0.129775 0.746206 0.000000
0.162147 0.745878 0.000000
0.194486 0.745531 0.000000
0.226790 0.745166 0.000000
0.259055 0.744784 0.000000
0.291282 0.744386 0.000000
0.323467 0.743975 0.000000
0.355611 0.743550 0.000000
0.387711 0.743114 0.000000
0.419768 0.742666 0.000000
0.451779 0.742209 0.000000
0.483745 0.741743 0.000000
0.515665 0.741268 0.000000
0.547538 0.740787 0.000000
0.579364 0.740299 0.000000
0.611144 0.739805 0.000000
0.642876 0.739307 0.000000
0.674561 0.738805 0.000000
0.706200 0.738300 0.000000
0.737791 0.737791 0.000000
0.769337 0.737281 0.000000
0.800837 0.736770 0.000000
0.832291 0.736258 0.000000
0.863701 0.735745 0.000000
0.895067 0.735233 0.000000
0.926389 0.734722 0.000000
0.957669 0.734213 0.000000
0.988907 0.733705 0.000000
1.000000 0.718750 0.000000
0.000000 0.778857 0.000000
0.032439 0.778528 0.000000
0.064848 0.778178 0.000000
0.097226 0.777809 0.000000
0.129570 0.777421 0.000000
0.161878 0.777016 0.000000
0.194149 0.776596 0.000000
0.226381 0.776162 0.000000
0.258571 0.775714 0.000000
0.290720 0.775254 0.000000
0.322826 0.774783 0.000000
0.354889 0.774303 0.000000
0.386906 0.773813 0.000000
0.418879 0.773315 0.000000
0.450806 0.772810 0.000000
0.482687 0.772299 0.000000
0.514521 0.771782 0.000000
0.546310 0.771261 0.000000
0.578051 0.770735 0.000000
0.609747 0.770207 0.000000
0.641396 0.769676 0.000000
0.673000 0.769143 0.000000
0.704558 0.768609 0.000000
0.736071 0.768074 0.000000
0.767540 0.767540 0.000000
0.798964 0.767006 0.000000
0.830346 0.766473 0.000000
0.861684 0.765942 0.000000
0.892982 0.765413 0.000000
0.924238 0.764887 0.000000
0.955455 0.764364 0.000000
0.986632 0.763844 0.000000
1.000000 0.750000 0.000000
0.000000 0.810072 0.000000
0.032386 0.809662 0.000000
0.064739 0.809235 0.000000
0.097055 0.808791 0.000000
0.129333 0.808334 0.000000
0.161572 0.807862 0.000000
0.193771 0.807379 0.000000
0.225928 0.806885 0.000000
0.258042 0.806381 0.000000
0.290112 0.805867 0.000000
0.322138 0.805346 0.000000
0.354120 0.804817 0.000000
0.386056 0.804283 0.000000
0.417946 0.803742 0.000000
0.449791 0.803198 0.000000
0.481590 0.802649 0.000000
0.513342 0.802098 0.000000
0.545050 0.801544 0.000000
0.576711 0.800988 0.000000
0.608328 0.800431 0.000000
0.639900 0.799874 0.000000
0.671427 0.799318 0.000000
0.702911 0.798762 0.000000
0.734351 0.798208 0.000000
0.765749 0.797655 0.000000
0.797105 0.797105 0.000000
0.828421 0.796558 0.000000
0.859696 0.796015 0.000000
0.890932 0.795475 0.000000
0.922131 0.794940 0.000000
0.953292 0.794410 0.000000
0.984418 0.793885 0.000000
1.000000 0.781250 0.000000
0.000000 0.840971 0.000000
0.032327 0.840490 0.000000
0.064615 0.839995 0.000000
0.096864 0.839489 0.000000
0.129072 0.838971 0.000000
0.161239 0.838443 0.000000
0.193363 0.837905 0.000000
0.225443 0.837360 0.000000
0.257479 0.836808 0.000000
0.289471 0.836250 0.000000
0.321418 0.835686 0.000000
0.353319 0.835118 0.000000
0.385175 0.834547 0.000000
0.416986 0.833972 0.000000
0.448751 0.833395 0.000000
0.480471 0.832817 0.000000
0.512146 0.832238 0.000000
0.543777 0.831659 0.000000
0.575363 0.831080 0.000000
0.606906 0.830502 0.000000
0.638405 0.829926 0.000000
0.669862 0.829353 0.000000
0.701277 0.828782 0.000000
0.732651 0.828214 0.000000
0.763985 0.827651 0.000000
0.795280 0.827091 0.000000
0.826537 0.826537 0.000000
