luts/tone-target-match.cube
TITLE "Tone Target Match"
LUT_3D_SIZE 5
DOMAIN_MIN 0.0 0.0 0.0
DOMAIN_MAX 1.0 1.0 1.0
0.000000 0.000000 0.000000
0.142815 0.000000 0.000000
0.405819 0.000000 0.000000
0.692584 0.000000 0.000000
0.963735 0.000000 0.000000
0.000000 0.235507 0.000000
0.243131 0.243131 0.000000
0.495380 0.247690 0.000000
0.755561 0.251854 0.000000
1.000000 0.250000 0.000000
0.000000 0.507239 0.000000
0.259429 0.518859 0.000000
0.520382 0.520382 0.000000
0.779679 0.519786 0.000000
1.000000 0.500000 0.000000
0.000000 0.778857 0.000000
0.258571 0.775714 0.000000
0.514521 0.771782 0.000000
0.767540 0.767540 0.000000
1.000000 0.750000 0.000000
0.000000 1.000000 0.000000
0.250000 1.000000 0.000000
0.500000 1.000000 0.000000
0.750000 1.000000 0.000000
1.000000 1.000000 0.000000
0.000000 0.000000 0.133409
0.165895 0.000000 0.165895
0.431550 0.000000 0.215775
0.705716 0.000000 0.235239
0.971989 0.000000 0.242997
0.000000 0.238724 0.238724
0.244842 0.244842 0.244842
0.498139 0.249070 0.249070
0.760430 0.253477 0.253477
1.000000 0.250000 0.250000
0.000000 0.511768 0.255884
0.259871 0.519741 0.259871
0.520357 0.520357 0.260178
0.778918 0.519279 0.259639
1.000000 0.500000 0.250000
0.000000 0.777915 0.259305
0.258147 0.774440 0.258147
0.513571 0.770357 0.256786
0.766092 0.766092 0.255364
1.000000 0.750000 0.250000
0.000000 1.000000 0.250000
0.250000 1.000000 0.250000
0.500000 1.000000 0.250000
0.750000 1.000000 0.250000
1.000000 1.000000 0.250000
0.000000 0.000000 0.266903
0.187136 0.000000 0.374271
0.450124 0.000000 0.450124
0.715560 0.000000 0.477040
0.978908 0.000000 0.489454
0.000000 0.241221 0.482442
0.246356 0.246356 0.492712
0.500941 0.250471 0.500941
0.767140 0.255713 0.511427
1.000000 0.250000 0.500000
0.000000 0.516166 0.516166
0.260098 0.520197 0.520197
0.520140 0.520140 0.520140
0.777988 0.518659 0.518659
1.000000 0.500000 0.500000
0.000000 0.776836 0.517891
0.257699 0.773097 0.515398
0.512608 0.768911 0.512608
0.764660 0.764660 0.509773
1.000000 0.750000 0.500000
0.000000 1.000000 0.500000
0.250000 1.000000 0.500000
0.500000 1.000000 0.500000
0.750000 1.000000 0.500000
1.000000 1.000000 0.500000
0.000000 0.000000 0.430938
0.203721 0.000000 0.611164
0.462281 0.000000 0.693421
0.723179 0.000000 0.723179
0.985006 0.000000 0.738755
0.000000 0.243233 0.729699
0.247767 0.247767 0.743301
0.503875 0.251937 0.755812
0.773830 0.257943 0.773830
1.000000 0.250000 0.750000
0.000000 0.518949 0.778423
0.260193 0.520386 0.780579
0.519761 0.519761 0.779642
0.776918 0.517945 0.776918
1.000000 0.500000 0.750000
0.000000 0.775646 0.775646
0.257235 0.771704 0.771704
0.511639 0.767459 0.767459
0.763252 0.763252 0.763252
1.000000 0.750000 0.750000
0.000000 1.000000 0.750000
0.250000 1.000000 0.750000
0.500000 1.000000 0.750000
0.750000 1.000000 0.750000
1.000000 1.000000 0.750000
0.000000 0.000000 0.668859
0.216381 0.000000 0.865523
0.470890 0.000000 0.941781
0.729301 0.000000 0.972401
0.990669 0.000000 0.990669
0.000000 0.244930 0.979721
0.249146 0.249146 0.996585
0.500000 0.250000 1.000000
0.750000 0.250000 1.000000
1.000000 0.250000 1.000000
0.000000 0.500000 1.000000
0.250000 0.500000 1.000000
0.500000 0.500000 1.000000
0.750000 0.500000 1.000000
1.000000 0.500000 1.000000
0.000000 0.750000 1.000000
0.250000 0.750000 1.000000
0.500000 0.750000 1.000000
0.750000 0.750000 1.000000
1.000000 0.750000 1.000000
0.000000 1.000000 1.000000
0.250000 1.000000 1.000000
0.500000 1.000000 1.000000
0.750000 1.000000 1.000000
1.000000 1.000000 1.000000
